X: 29668
T: Norwegian Gent, The
R: waltz
M: 3/4
K: Gmajor
D2|"G"B4d2|G4D2|BAB2d2|"(Bm7)"F4G2|"Am7"c4e2|A4E2|"C+9"cBc2e2|"Dsus4"A4D2|
"G"B4d2|G4D2|"Bm7"BAB2d2|F4G2|"C+9"c3d ef|g2d2B2|"D"c2A2d2|"G"G4"D"D2|
"G"B4d2|G4D2|BAB2d2|"(Bm7)"F4G2|"Am7"c4e2|A4E2|"C+9"cBc2e2|"Dsus4"A4D2|
"Em7"B4d2|G4D2|"Gmaj7/D"BAB2d2|F4G2|"C+9"c3d ef|g2d2B2|"D"c2A2d2|"G"G3A Bd||
"C+9"e4b2|b2a2g2|"Bm7"f3d Bd|f3f gf|"Am7"e2A3B|cB cd ed|"D/F#"A6|"G"AG AB "G/B"cd|
"C+9"e4b2|b2a2g2|"Em9"f3d Bd|f3f gf|"Am7"e2A3B|cB cd ed|"D/F#"A6|"G"AG Bd "G/B"gf|
"C"e4b2|b2a2g2|"D/C"f3d Bd|f3f gf|"Am/C"e2A3B|cB cd ed|"D/F#"A6|"Em7"AG AB cd|
"C+9"e4b2|b2a2g2|"Em9"f3B df|"Em(1
)"g4gf|"Am7"e2A3B|"C+9"cB cd e"D(sus4)"d|(d6|d4)||

